X:158
T:Drogheda Bay
R:reel
H:See also Big Pat, #442
D:Matt Molloy: Heathery Breeze
Z:id:hn-reel-158
M:C|
K:Edor
BGEF ~G2BG|~G2BG FGA2|BGEF ~G2ef|1 gfed Bded:|2 gfed Bdef||
|:~g3a bgeg|~f3g afdf|1 g2ga bgeg|fedA Be~e2:|2 g2bg dfaf|gfed Bded||

